packages/bezier-icons/icons/pointer.svg

<svg width="24" height="24" viewBox="0 0 24 24" fill="none" xmlns="http://www.w3.org/2000/svg">
<path fill-rule="evenodd" clip-rule="evenodd" d="M3.06318 5.97267C2.43194 4.36588 3.99618 2.76788 5.61609 3.36468L21.1444 9.08565C22.8858 9.72723 22.8903 12.1886 21.1512 12.8365L15.0934 15.0934L12.8065 21.2318C12.1659 22.9511 9.74172 22.9726 9.07082 21.2649L3.06318 5.97267ZM20.453 10.9623L4.92468 5.24137L10.9323 20.5336L13.2192 14.3951C13.4219 13.851 13.851 13.4219 14.3951 13.2192L20.453 10.9623Z" fill="#313234"/>
</svg>

<svg xmlns="http://www.w3.org/2000/svg" width="24" height="24" fill="none" viewBox="0 0 24 24"><path fill="#313234" fill-rule="evenodd" d="M3.063 5.973c-.631-1.607.933-3.205 2.553-2.608l15.528 5.72c1.742.642 1.746 3.104.007 3.751l-6.058 2.257-2.286 6.139c-.641 1.72-3.065 1.74-3.736.033zm17.39 4.99L4.925 5.24l6.007 15.293 2.287-6.139a2 2 0 0 1 1.176-1.176z" clip-rule="evenodd"/></svg>
